gtk-icons/Papirus-GTK/24x24/panel/everpad-mono.svg

<?xml version="1.0" encoding="UTF-8" standalone="no"?>
<!-- Created with Inkscape (http://www.inkscape.org/) -->
<svg id="svg7384" xmlns:rdf="http://www.w3.org/1999/02/22-rdf-syntax-ns#" style="enable-background:new" xmlns="http://www.w3.org/2000/svg" xmlns:osb="http://www.openswatchbook.org/uri/2009/osb" height="24" width="24" version="1.1" xmlns:cc="http://creativecommons.org/ns#" xmlns:dc="http://purl.org/dc/elements/1.1/">
 <metadata id="metadata90">
  <rdf:RDF>
   <cc:Work rdf:about="">
    <dc:format>image/svg+xml</dc:format>
    <dc:type rdf:resource="http://purl.org/dc/dcmitype/StillImage"/>
    <dc:title>Paper Symbolic Icon Theme</dc:title>
   </cc:Work>
  </rdf:RDF>
 </metadata>
 <title id="title8473">Paper Symbolic Icon Theme</title>
 <defs id="defs7386">
  <filter id="filter7554" style="color-interpolation-filters:sRGB">
   <feBlend id="feBlend7556" in2="BackgroundImage" mode="darken"/>
  </filter>
  <style id="current-color-scheme" type="text/css">.ColorScheme-Text {
        color:#7B7C7E;
      }
      .ColorScheme-Background{
        color:#EFF0F1;
      }
      .ColorScheme-Highlight{
        color:#3DAEE6;
      }
      .ColorScheme-ViewText {
        color:#7B7C7E;
      }
      .ColorScheme-ViewBackground{
        color:#FCFCFC;
      }
      .ColorScheme-ViewHover {
        color:#3DAEE6;
      }
      .ColorScheme-ViewFocus{
        color:#1E92FF;
      }
      .ColorScheme-ButtonText {
        color:#7B7C7E;
      }
      .ColorScheme-ButtonBackground{
        color:#EFF0F1;
      }
      .ColorScheme-ButtonHover {
        color:#3DAEE6;
      }
      .ColorScheme-ButtonFocus{
        color:#1E92FF;
      }</style>
 </defs>
 <g id="layer9" transform="translate(-545 403.01)">
  <g id="g10" transform="matrix(1.2838 0 0 -1.2418 545.66 -380.08)" fill="#fff">
   <g id="g12" fill="#fff">
    <path id="path14" d="m13.953 13.002c-0.094 0.512-0.406 0.766-0.683 0.868-1.1693 0.48405-2.1827 0.53002-3.465 0.56753-0.055 0.359-0.309 0.475-0.59 0.588-0.754 0.301-1.922 0.226-2.219 0.144-0.238-0.066-0.504-0.199-0.648-0.406-0.098-0.141-0.164-0.316-0.164-0.566 0-0.141 0.004-0.473 0.007-0.766 0.004-0.293 0.008-0.39812 0.008-0.39812 0-0.261-0.215-0.20696-0.48-0.20696h-1.223c-1.1632 0-1.1688-1.338-1.09-2.227 0.043-0.332 0.41-2.668 0.758-3.379 0.137-0.273 0.227-0.391 0.492-0.512 0.59-0.25 1.942-0.527 2.574-0.609 0.629-0.078 1.028-0.246 1.262 0.242 0 0 0.047 0.121 0.113 0.301 0.204 0.613 0.231 1.156 0.231 1.551 0 0.043 0.062 0.043 0.062 0 0-0.278-0.054-1.262 0.7-1.528 0.297-0.105 0.914-0.195 1.539-0.269 0.566-0.063 0.976-0.285 0.976-1.723 0-0.875-0.183-0.992-1.156-0.992-0.785 0-1.086-0.019-1.086 0.598 0 0.5 0.5 0.445 0.871 0.445 0.164 0 0.043 0.121 0.043 0.43 0 0.308 0.195 0.484 0.012 0.488-1.281 0.035-2.035 0.004-2.035-1.582 0-1.438 0.558-1.703 2.375-1.703 1.425 0 1.929 0.047 2.515 1.851 0.118 0.356 0.399 1.446 0.571 3.27 0.109 1.156-0.102 4.641-0.27 5.523zm-2.484-3.855c-0.176 0.008-0.344-0.004-0.504-0.027 0.047 0.351 0.195 0.789 0.719 0.769 0.582-0.019 0.664-0.562 0.664-0.93-0.246 0.11-0.547 0.176-0.879 0.188z" fill="#fff"/>
   </g>
  </g>
 </g>
</svg>

<?xml version="1.0" encoding="UTF-8" standalone="no"?>
<!-- Created with Inkscape (http://www.inkscape.org/) -->

<svg
   xmlns:osb="http://www.openswatchbook.org/uri/2009/osb"
   xmlns:dc="http://purl.org/dc/elements/1.1/"
   xmlns:cc="http://creativecommons.org/ns#"
   xmlns:rdf="http://www.w3.org/1999/02/22-rdf-syntax-ns#"
   xmlns:svg="http://www.w3.org/2000/svg"
   xmlns="http://www.w3.org/2000/svg"
   xmlns:sodipodi="http://sodipodi.sourceforge.net/DTD/sodipodi-0.dtd"
   xmlns:inkscape="http://www.inkscape.org/namespaces/inkscape"
   sodipodi:docname="everpad-mono.svg"
   inkscape:export-filename="/home/sam/source-symbolic.png"
   inkscape:export-xdpi="270"
   inkscape:export-ydpi="270"
   height="24"
   id="svg7384"
   style="enable-background:new"
   version="1.1"
   inkscape:version="0.91 r13725"
   width="24">
  <sodipodi:namedview
     inkscape:bbox-nodes="false"
     inkscape:bbox-paths="false"
     bordercolor="#666666"
     borderlayer="false"
     borderopacity="1"
     inkscape:current-layer="layer9"
     inkscape:cx="2.8933793"
     inkscape:cy="14.183392"
     gridtolerance="10"
     inkscape:guide-bbox="true"
     guidetolerance="10"
     id="namedview88"
     inkscape:object-nodes="true"
     inkscape:object-paths="true"
     objecttolerance="10"
     pagecolor="#737373"
     inkscape:pageopacity="1"
     inkscape:pageshadow="2"
     showborder="true"
     showgrid="false"
     showguides="false"
     inkscape:showpageshadow="false"
     inkscape:snap-bbox="true"
     inkscape:snap-bbox-edge-midpoints="false"
     inkscape:snap-bbox-midpoints="false"
     inkscape:snap-center="false"
     inkscape:snap-global="true"
     inkscape:snap-grids="true"
     inkscape:snap-intersection-paths="true"
     inkscape:snap-midpoints="true"
     inkscape:snap-nodes="true"
     inkscape:snap-object-midpoints="true"
     inkscape:snap-others="true"
     inkscape:snap-page="false"
     inkscape:snap-smooth-nodes="true"
     inkscape:snap-to-guides="true"
     inkscape:window-height="845"
     inkscape:window-maximized="1"
     inkscape:window-width="1600"
     inkscape:window-x="0"
     inkscape:window-y="31"
     inkscape:zoom="1">
    <inkscape:grid
       color="#000000"
       dotted="false"
       empcolor="#0800ff"
       empopacity="0.4627451"
       empspacing="4"
       enabled="true"
       id="grid4866"
       opacity="0.16470588"
       originx="-304.00021"
       originy="-612.01034"
       snapvisiblegridlinesonly="true"
       spacingx="0.25px"
       spacingy="0.25px"
       type="xygrid"
       visible="true" />
  </sodipodi:namedview>
  <metadata
     id="metadata90">
    <rdf:RDF>
      <cc:Work
         rdf:about="">
        <dc:format>image/svg+xml</dc:format>
        <dc:type
           rdf:resource="http://purl.org/dc/dcmitype/StillImage" />
        <dc:title>Paper Symbolic Icon Theme</dc:title>
      </cc:Work>
    </rdf:RDF>
  </metadata>
  <title
     id="title8473">Paper Symbolic Icon Theme</title>
  <defs
     id="defs7386">
    <linearGradient
       id="linearGradient5606"
       osb:paint="solid">
      <stop
         id="stop5608"
         offset="0"
         style="stop-color:#000000;stop-opacity:1;" />
    </linearGradient>
    <filter
       inkscape:collect="always"
       id="filter7554"
       style="color-interpolation-filters:sRGB">
      <feBlend
         inkscape:collect="always"
         id="feBlend7556"
         in2="BackgroundImage"
         mode="darken" />
    </filter>
    <style
       type="text/css"
       id="current-color-scheme">
      .ColorScheme-Text {
        color:#7B7C7E;
      }
      .ColorScheme-Background{
        color:#EFF0F1;
      }
      .ColorScheme-Highlight{
        color:#3DAEE6;
      }
      .ColorScheme-ViewText {
        color:#7B7C7E;
      }
      .ColorScheme-ViewBackground{
        color:#FCFCFC;
      }
      .ColorScheme-ViewHover {
        color:#3DAEE6;
      }
      .ColorScheme-ViewFocus{
        color:#1E92FF;
      }
      .ColorScheme-ButtonText {
        color:#7B7C7E;
      }
      .ColorScheme-ButtonBackground{
        color:#EFF0F1;
      }
      .ColorScheme-ButtonHover {
        color:#3DAEE6;
      }
      .ColorScheme-ButtonFocus{
        color:#1E92FF;
      }
</style>
  </defs>
  <g
     inkscape:groupmode="layer"
     id="layer9"
     inkscape:label="status"
     style="display:inline"
     transform="translate(-545.00041,403.01034)">
    <g
       id="layer1-0"
       inkscape:label="places"
       style="display:inline"
       transform="translate(494.73356,-808.10088)" />
    <g
       id="layer14-9"
       inkscape:label="mimetypes"
       style="display:inline"
       transform="translate(253.73336,-191.10088)" />
    <g
       id="layer15-5"
       inkscape:label="emblems"
       style="display:inline"
       transform="translate(253.73336,-191.10088)" />
    <g
       id="g71291-6"
       inkscape:label="emotes"
       style="display:inline"
       transform="translate(253.73336,-191.10088)" />
    <g
       id="layer2-1"
       inkscape:label="categories"
       style="display:inline"
       transform="translate(494.73356,-658.10088)" />
    <g
       id="g6058-8"
       inkscape:label="apps"
       style="display:inline"
       transform="translate(494.73356,-658.10088)" />
    <g
       id="layer12-8"
       inkscape:label="actions"
       style="display:inline"
       transform="translate(253.73336,-191.10088)" />
    <g
       id="layer1-5"
       inkscape:label="places"
       style="display:inline"
       transform="translate(626.34467,-803.93294)" />
    <g
       id="layer14-3"
       inkscape:label="mimetypes"
       style="display:inline"
       transform="translate(385.34447,-186.93294)" />
    <g
       id="layer15-8"
       inkscape:label="emblems"
       style="display:inline"
       transform="translate(385.34447,-186.93294)" />
    <g
       id="g71291-2"
       inkscape:label="emotes"
       style="display:inline"
       transform="translate(385.34447,-186.93294)" />
    <g
       id="layer2-0"
       inkscape:label="categories"
       style="display:inline"
       transform="translate(626.34467,-653.93294)" />
    <g
       id="g6058-5"
       inkscape:label="apps"
       style="display:inline"
       transform="translate(626.34467,-653.93294)" />
    <g
       id="layer12-5"
       inkscape:label="actions"
       style="display:inline"
       transform="translate(385.34447,-186.93294)" />
    <g
       style="opacity:1;fill:#ffffff;fill-opacity:1"
       id="g10"
       transform="matrix(1.2838189,0,0,-1.2417707,545.66442,-380.08224)">
      <g
         style="fill:#ffffff;fill-opacity:1"
         id="g12">
        <path
           sodipodi:nodetypes="ccccccsccssccccccssccssssscsscscccccc"
           inkscape:connector-curvature="0"
           d="m 13.953,13.002 c -0.094,0.512 -0.406,0.766 -0.683,0.868 -1.169313,0.48405 -2.182659,0.530023 -3.465,0.567528 C 9.75,14.796525 9.496,14.913 9.215,15.026 8.461,15.327 7.293,15.252 6.996,15.17 6.758,15.104 6.492,14.971 6.348,14.764 6.25,14.623 6.184,14.448 6.184,14.198 c 0,-0.141 0.004,-0.473 0.007,-0.766 0.004,-0.293 0.008,-0.398116 0.008,-0.398116 0,-0.261 -0.215,-0.206964 -0.48,-0.206964 l -1.223,0 C 3.3327579,12.82692 3.3271917,11.489222 3.406,10.6 3.449,10.268 3.816,7.932 4.164,7.221 4.301,6.948 4.391,6.83 4.656,6.709 5.246,6.459 6.598,6.182 7.23,6.1 7.859,6.022 8.258,5.854 8.492,6.342 c 0,0 0.047,0.121 0.113,0.301 0.204,0.613 0.231,1.156 0.231,1.551 0,0.043 0.062,0.043 0.062,0 0,-0.278 -0.054,-1.262 0.7,-1.528 0.297,-0.105 0.914,-0.195 1.539,-0.269 0.566,-0.063 0.976,-0.285 0.976,-1.723 0,-0.875 -0.183,-0.992 -1.156,-0.992 -0.785,0 -1.086,-0.019 -1.086,0.598 0,0.5 0.5,0.445 0.871,0.445 0.164,0 0.043,0.121 0.043,0.43 0,0.308 0.195,0.484 0.012,0.488 -1.281,0.035 -2.035,0.004 -2.035,-1.582 0,-1.438 0.558,-1.703 2.375,-1.703 1.425,0 1.929,0.047 2.515,1.851 0.118,0.356 0.399,1.446 0.571,3.27 0.109,1.156 -0.102,4.641 -0.27,5.523 z M 11.469,9.147 C 11.293,9.155 11.125,9.143 10.965,9.12 c 0.047,0.351 0.195,0.789 0.719,0.769 0.582,-0.019 0.664,-0.562 0.664,-0.93 -0.246,0.11 -0.547,0.176 -0.879,0.188 z"
           style="fill:#ffffff;fill-opacity:1;fill-rule:nonzero;stroke:none"
           id="path14" />
      </g>
    </g>
  </g>
  <g
     inkscape:groupmode="layer"
     id="layer10"
     inkscape:label="devices"
     style="display:inline;filter:url(#filter7554)"
     transform="translate(-545.00041,403.01034)" />
  <g
     inkscape:groupmode="layer"
     id="layer1"
     inkscape:label="places"
     style="display:inline"
     transform="translate(-304.00021,-213.98966)" />
  <g
     inkscape:groupmode="layer"
     id="layer14"
     inkscape:label="mimetypes"
     style="display:inline"
     transform="translate(-545.00041,403.01034)" />
  <g
     inkscape:groupmode="layer"
     id="layer15"
     inkscape:label="emblems"
     style="display:inline"
     transform="translate(-545.00041,403.01034)" />
  <g
     inkscape:groupmode="layer"
     id="g71291"
     inkscape:label="emotes"
     style="display:inline"
     transform="translate(-545.00041,403.01034)" />
  <g
     inkscape:groupmode="layer"
     id="layer2"
     inkscape:label="categories"
     style="display:inline"
     transform="translate(-304.00021,-63.98966)" />
  <g
     inkscape:groupmode="layer"
     id="g6058"
     inkscape:label="apps"
     style="display:inline"
     transform="translate(-304.00021,-63.98966)" />
  <g
     inkscape:groupmode="layer"
     id="layer12"
     inkscape:label="actions"
     style="display:inline"
     transform="translate(-545.00041,403.01034)" />
</svg>
